Yaru++/apps/16/kdenlive.svg

<svg height="16" width="16" xmlns="http://www.w3.org/2000/svg">
  <path d="m5.9921875.5 1.1542969 1.7304688.5800781.8691406.0195313 12.4003906h1.1308593v-12.4042969l.5761719-.8652343 1.154297-1.7304688h-2.3066408zm-.5761719 2.8847656v.8652344h1.1523438v-.8652344zm5.0625004 1.5566406c-.21246.0114581-.439988.199253-.439454.40625l-.007812 6.1113278c0 .276018.406276.515537.638672.351563l4.378906-3.0644532c.233913-.161947.23338-.542413 0-.7050782l-4.371094-3.0449218c-.05833-.040633-.126414-.0584716-.197265-.0546876zm-6.2167972.1738282v.8652344h2.3066406v-.8652344zm-2.3085938 1.7304687v.8652344h4.6152344v-.8652344zm-1.15234375 1.7304688v.8652343h5.76757815v-.8652343zm1.15234375 1.7304691v.865234h4.6152344v-.865234zm2.3085938 1.730468v.867188h2.3066406v-.867188z" fill="#808080"/>
</svg>

<svg xmlns="http://www.w3.org/2000/svg" width="16" height="16" version="1">
 <path style="fill:#808080" d="M 5.9921875 0.5 L 7.1464844 2.2304688 L 7.7265625 3.0996094 L 7.7460938 15.5 L 8.8769531 15.5 L 8.8769531 3.0957031 L 9.453125 2.2304688 L 10.607422 0.5 L 8.3007812 0.5 L 5.9921875 0.5 z M 5.4160156 3.3847656 L 5.4160156 4.25 L 6.5683594 4.25 L 6.5683594 3.3847656 L 5.4160156 3.3847656 z M 10.478516 4.9414062 C 10.266056 4.9528643 10.038528 5.1406592 10.039062 5.3476562 L 10.03125 11.458984 C 10.03125 11.735002 10.437526 11.974521 10.669922 11.810547 L 15.048828 8.7460938 C 15.282741 8.5841468 15.282208 8.2036808 15.048828 8.0410156 L 10.677734 4.9960938 C 10.619404 4.9554608 10.55132 4.9376222 10.480469 4.9414062 L 10.478516 4.9414062 z M 4.2617188 5.1152344 L 4.2617188 5.9804688 L 6.5683594 5.9804688 L 6.5683594 5.1152344 L 4.2617188 5.1152344 z M 1.953125 6.8457031 L 1.953125 7.7109375 L 6.5683594 7.7109375 L 6.5683594 6.8457031 L 1.953125 6.8457031 z M 0.80078125 8.5761719 L 0.80078125 9.4414062 L 6.5683594 9.4414062 L 6.5683594 8.5761719 L 0.80078125 8.5761719 z M 1.953125 10.306641 L 1.953125 11.171875 L 6.5683594 11.171875 L 6.5683594 10.306641 L 1.953125 10.306641 z M 4.2617188 12.037109 L 4.2617188 12.904297 L 6.5683594 12.904297 L 6.5683594 12.037109 L 4.2617188 12.037109 z"/>
</svg>
